!!!COM: Music21
!!!OTL: reel_One-Night-Fling--The
!!!OMV: reel_One-Night-Fling--The
**kern
*clefG2
*k[f#c#]
*D:
*M4/4
=1
8e
=
8dL
8AJ
8dL
8eJ
4f#
8f#L
8aJ
=
8gL
8f#J
8gL
8aJ
16bKL
8.eJ
8eL
8f#J
=
8dL
8AJ
8dL
8eJ
4f#
8f#L
8bJ
=
8a
8eL
8g
8f#J
4d
8d
8ryy
=||
*M4/4
8e
!!linebreak:original
=
8dL
8AJ
8dL
8eJ
4f#
8f#L
8aJ
=
8gL
8f#J
8gL
8aJ
16bKL
8.eJ
8eL
8f#J
=
8dL
8AJ
8dL
8eJ
4f#
8f#L
8bJ
=
8a
8eL
8g
8f#J
4d
8d
8ryy
=||
8cc#
2..ryy
=
8ddL
8bJ
12bL
12b
12bJ
8ff#L
8bJ
8ddL
8bJ
!!linebreak:original
=
8aL
8dJ
8f#L
8dJ
4e
8bL
8cc#J
=
8ddL
8bJ
12bL
12b
12bJ
8ff#L
8bJ
8ddL
8cc#J
=
8aL
8eJ
8gL
8f#J
4d
8dL
8cc#J
=
8ddL
8bJ
12bL
12b
12bJ
8ff#L
8bJ
8ddL
8bJ
=
8aL
8dJ
8f#L
8dJ
4e
8ddL
8eeJ
!!linebreak:original
=
12ff#L
12gg
12ff#J
8eeL
8cc#J
8ddL
8ff#J
8ddL
8cc#J
=
8a
8eL
8g
8f#J
4d
8d
8ryy
=||
*-
